(.../Documents/eagle/ulp/pcb-gcode.ulp)
(Copyright 2005 - 2009 by John Johnson)
(See readme.txt for licensing terms.)
(This file generated from the board:)
(.../Desktop/projects/TRDR/pcb/TRDR.brd)
(Current profile is .../eagle/ulp/profiles/generic.pp  )
(This file generated 6/22/11 10:41 PM)
( Tool|       Size       |  Min Sub |  Max Sub |   Count )
( T01  0.800mm 0.0315in 0.0000in 0.0000in )
( T02  0.813mm 0.0320in 0.0000in 0.0000in )
( T03  1.016mm 0.0400in 0.0000in 0.0000in )
( T04  1.321mm 0.0520in 0.0000in 0.0000in )
( T05  1.397mm 0.0550in 0.0000in 0.0000in )
G21
(Absolute Coordinates)
G90
M05
G00 Z0.0000 
G00 X0.0000 Y0.0000 
M06 T01  ; 0.8000 
G00 Z2.5400 
M03
G04 P3.000000
G00 Z2.540000
G00 X17.7800 Y33.0200 
G01 Z-2.2400 F254.00 
G01 Z2.540000
(R2.5400  P1.000000)
(G00 Z2.540000)
G00 X20.3200 Y38.1000 
G01 Z-2.240000
G01 Z2.540000
(G00 Z2.540000)
G00 X22.8600 Y33.0200 
G01 Z-2.240000
G01 Z2.540000
(G00 Z2.540000)
G00 X25.4000 Y38.1000 
G01 Z-2.240000
G01 Z2.540000
M05
G00 Z0.0000 
M06 T02  ; 0.8128 
G00 Z2.5400 
M03
G04 P3.000000
G00 Z2.540000
G00 X102.8700 Y48.2600 
G01 Z-2.2400 F254.00 
G01 Z2.540000
(R2.5400  P1.000000)
(G00 Z2.540000)
G00 X104.1400 Y21.5900 
G01 Z-2.240000
G01 Z2.540000
(G00 Z2.540000)
G00 X104.1400 Y31.7500 
G01 Z-2.240000
G01 Z2.540000
(G00 Z2.540000)
G00 X106.6800 Y8.8900 
G01 Z-2.240000
G01 Z2.540000
(G00 Z2.540000)
G00 X109.2200 Y8.8900 
G01 Z-2.240000
G01 Z2.540000
(G00 Z2.540000)
G00 X111.7600 Y8.8900 
G01 Z-2.240000
G01 Z2.540000
(G00 Z2.540000)
G00 X111.7600 Y21.5900 
G01 Z-2.240000
G01 Z2.540000
(G00 Z2.540000)
G00 X111.7600 Y31.7500 
G01 Z-2.240000
G01 Z2.540000
(G00 Z2.540000)
G00 X113.0300 Y48.2600 
G01 Z-2.240000
G01 Z2.540000
(G00 Z2.540000)
G00 X114.3000 Y8.8900 
G01 Z-2.240000
G01 Z2.540000
(G00 Z2.540000)
G00 X116.8400 Y8.8900 
G01 Z-2.240000
G01 Z2.540000
(G00 Z2.540000)
G00 X118.7450 Y40.6400 
G01 Z-2.240000
G01 Z2.540000
(G00 Z2.540000)
G00 X119.3800 Y8.8900 
G01 Z-2.240000
G01 Z2.540000
(G00 Z2.540000)
G00 X120.6500 Y39.3700 
G01 Z-2.240000
G01 Z2.540000
(G00 Z2.540000)
G00 X120.6500 Y41.9100 
G01 Z-2.240000
G01 Z2.540000
(G00 Z2.540000)
G00 X128.2700 Y46.9900 
G01 Z-2.240000
G01 Z2.540000
(G00 Z2.540000)
G00 X138.4300 Y46.9900 
G01 Z-2.240000
G01 Z2.540000
(G00 Z2.540000)
G00 X25.4000 Y16.5100 
G01 Z-2.240000
G01 Z2.540000
(G00 Z2.540000)
G00 X25.4000 Y26.6700 
G01 Z-2.240000
G01 Z2.540000
(G00 Z2.540000)
G00 X30.4800 Y16.5100 
G01 Z-2.240000
G01 Z2.540000
(G00 Z2.540000)
G00 X30.4800 Y26.6700 
G01 Z-2.240000
G01 Z2.540000
(G00 Z2.540000)
G00 X34.2900 Y41.9100 
G01 Z-2.240000
G01 Z2.540000
(G00 Z2.540000)
G00 X34.2900 Y54.6100 
G01 Z-2.240000
G01 Z2.540000
(G00 Z2.540000)
G00 X35.5600 Y16.5100 
G01 Z-2.240000
G01 Z2.540000
(G00 Z2.540000)
G00 X35.5600 Y26.6700 
G01 Z-2.240000
G01 Z2.540000
(G00 Z2.540000)
G00 X36.8300 Y41.9100 
G01 Z-2.240000
G01 Z2.540000
(G00 Z2.540000)
G00 X36.8300 Y54.6100 
G01 Z-2.240000
G01 Z2.540000
(G00 Z2.540000)
G00 X39.3700 Y16.5100 
G01 Z-2.240000
G01 Z2.540000
(G00 Z2.540000)
G00 X39.3700 Y26.6700 
G01 Z-2.240000
G01 Z2.540000
(G00 Z2.540000)
G00 X39.3700 Y41.9100 
G01 Z-2.240000
G01 Z2.540000
(G00 Z2.540000)
G00 X39.3700 Y54.6100 
G01 Z-2.240000
G01 Z2.540000
(G00 Z2.540000)
G00 X41.9100 Y41.9100 
G01 Z-2.240000
G01 Z2.540000
(G00 Z2.540000)
G00 X41.9100 Y54.6100 
G01 Z-2.240000
G01 Z2.540000
(G00 Z2.540000)
G00 X43.1800 Y16.5100 
G01 Z-2.240000
G01 Z2.540000
(G00 Z2.540000)
G00 X43.1800 Y26.6700 
G01 Z-2.240000
G01 Z2.540000
(G00 Z2.540000)
G00 X43.1800 Y72.3900 
G01 Z-2.240000
G01 Z2.540000
(G00 Z2.540000)
G00 X43.1800 Y82.5500 
G01 Z-2.240000
G01 Z2.540000
(G00 Z2.540000)
G00 X44.4500 Y41.9100 
G01 Z-2.240000
G01 Z2.540000
(G00 Z2.540000)
G00 X44.4500 Y54.6100 
G01 Z-2.240000
G01 Z2.540000
(G00 Z2.540000)
G00 X46.9900 Y41.9100 
G01 Z-2.240000
G01 Z2.540000
(G00 Z2.540000)
G00 X46.9900 Y54.6100 
G01 Z-2.240000
G01 Z2.540000
(G00 Z2.540000)
G00 X49.5300 Y41.9100 
G01 Z-2.240000
G01 Z2.540000
(G00 Z2.540000)
G00 X49.5300 Y54.6100 
G01 Z-2.240000
G01 Z2.540000
(G00 Z2.540000)
G00 X52.0700 Y41.9100 
G01 Z-2.240000
G01 Z2.540000
(G00 Z2.540000)
G00 X52.0700 Y54.6100 
G01 Z-2.240000
G01 Z2.540000
(G00 Z2.540000)
G00 X54.6100 Y41.9100 
G01 Z-2.240000
G01 Z2.540000
(G00 Z2.540000)
G00 X54.6100 Y54.6100 
G01 Z-2.240000
G01 Z2.540000
(G00 Z2.540000)
G00 X57.1500 Y41.9100 
G01 Z-2.240000
G01 Z2.540000
(G00 Z2.540000)
G00 X57.1500 Y54.6100 
G01 Z-2.240000
G01 Z2.540000
(G00 Z2.540000)
G00 X59.6900 Y41.9100 
G01 Z-2.240000
G01 Z2.540000
(G00 Z2.540000)
G00 X59.6900 Y54.6100 
G01 Z-2.240000
G01 Z2.540000
(G00 Z2.540000)
G00 X62.2300 Y41.9100 
G01 Z-2.240000
G01 Z2.540000
(G00 Z2.540000)
G00 X62.2300 Y54.6100 
G01 Z-2.240000
G01 Z2.540000
(G00 Z2.540000)
G00 X64.7700 Y41.9100 
G01 Z-2.240000
G01 Z2.540000
(G00 Z2.540000)
G00 X64.7700 Y54.6100 
G01 Z-2.240000
G01 Z2.540000
(G00 Z2.540000)
G00 X66.0400 Y16.5100 
G01 Z-2.240000
G01 Z2.540000
(G00 Z2.540000)
G00 X67.3100 Y41.9100 
G01 Z-2.240000
G01 Z2.540000
(G00 Z2.540000)
G00 X67.3100 Y54.6100 
G01 Z-2.240000
G01 Z2.540000
(G00 Z2.540000)
G00 X68.5800 Y72.3900 
G01 Z-2.240000
G01 Z2.540000
(G00 Z2.540000)
G00 X68.5800 Y82.5500 
G01 Z-2.240000
G01 Z2.540000
(G00 Z2.540000)
G00 X69.8500 Y41.9100 
G01 Z-2.240000
G01 Z2.540000
(G00 Z2.540000)
G00 X69.8500 Y54.6100 
G01 Z-2.240000
G01 Z2.540000
(G00 Z2.540000)
G00 X72.3900 Y41.9100 
G01 Z-2.240000
G01 Z2.540000
(G00 Z2.540000)
G00 X72.3900 Y54.6100 
G01 Z-2.240000
G01 Z2.540000
(G00 Z2.540000)
G00 X74.9300 Y41.9100 
G01 Z-2.240000
G01 Z2.540000
(G00 Z2.540000)
G00 X74.9300 Y54.6100 
G01 Z-2.240000
G01 Z2.540000
(G00 Z2.540000)
G00 X76.2000 Y16.5100 
G01 Z-2.240000
G01 Z2.540000
(G00 Z2.540000)
G00 X77.4700 Y41.9100 
G01 Z-2.240000
G01 Z2.540000
(G00 Z2.540000)
G00 X77.4700 Y54.6100 
G01 Z-2.240000
G01 Z2.540000
(G00 Z2.540000)
G00 X80.0100 Y41.9100 
G01 Z-2.240000
G01 Z2.540000
(G00 Z2.540000)
G00 X80.0100 Y54.6100 
G01 Z-2.240000
G01 Z2.540000
(G00 Z2.540000)
G00 X82.5500 Y41.9100 
G01 Z-2.240000
G01 Z2.540000
(G00 Z2.540000)
G00 X82.5500 Y54.6100 
G01 Z-2.240000
G01 Z2.540000
(G00 Z2.540000)
G00 X97.1550 Y41.9100 
G01 Z-2.240000
G01 Z2.540000
(G00 Z2.540000)
G00 X99.0600 Y40.6400 
G01 Z-2.240000
G01 Z2.540000
(G00 Z2.540000)
G00 X99.0600 Y43.1800 
G01 Z-2.240000
G01 Z2.540000
M05
G00 Z0.0000 
M06 T03  ; 1.0160 
G00 Z2.5400 
M03
G04 P3.000000
G00 Z2.540000
G00 X119.3800 Y54.6100 
G01 Z-2.2400 F254.00 
G01 Z2.540000
(R2.5400  P1.000000)
(G00 Z2.540000)
G00 X119.3800 Y57.1500 
G01 Z-2.240000
G01 Z2.540000
(G00 Z2.540000)
G00 X119.3800 Y59.6900 
G01 Z-2.240000
G01 Z2.540000
(G00 Z2.540000)
G00 X96.5200 Y54.6100 
G01 Z-2.240000
G01 Z2.540000
(G00 Z2.540000)
G00 X96.5200 Y57.1500 
G01 Z-2.240000
G01 Z2.540000
(G00 Z2.540000)
G00 X96.5200 Y59.6900 
G01 Z-2.240000
G01 Z2.540000
M05
G00 Z0.0000 
M06 T04  ; 1.3208 
G00 Z2.5400 
M03
G04 P3.000000
G00 Z2.540000
G00 X105.0290 Y76.3270 
G01 Z-2.2400 F254.00 
G01 Z2.540000
(R2.5400  P1.000000)
(G00 Z2.540000)
G00 X105.0290 Y88.5190 
G01 Z-2.240000
G01 Z2.540000
(G00 Z2.540000)
G00 X122.3010 Y76.3270 
G01 Z-2.240000
G01 Z2.540000
(G00 Z2.540000)
G00 X122.3010 Y88.5190 
G01 Z-2.240000
G01 Z2.540000
(G00 Z2.540000)
G00 X128.2700 Y74.2950 
G01 Z-2.240000
G01 Z2.540000
(G00 Z2.540000)
G00 X134.2390 Y76.3270 
G01 Z-2.240000
G01 Z2.540000
(G00 Z2.540000)
G00 X134.2390 Y88.5190 
G01 Z-2.240000
G01 Z2.540000
(G00 Z2.540000)
G00 X93.0910 Y76.3270 
G01 Z-2.240000
G01 Z2.540000
(G00 Z2.540000)
G00 X93.0910 Y88.5190 
G01 Z-2.240000
G01 Z2.540000
(G00 Z2.540000)
G00 X99.0600 Y74.2950 
G01 Z-2.240000
G01 Z2.540000
M05
G00 Z0.0000 
M06 T05  ; 1.3970 
G00 Z2.5400 
M03
G04 P3.000000
G00 Z2.540000
G00 X10.1600 Y22.8600 
G01 Z-2.2400 F254.00 
G01 Z2.540000
(R2.5400  P1.000000)
(G00 Z2.540000)
G00 X10.1600 Y27.9400 
G01 Z-2.240000
G01 Z2.540000
(G00 Z2.540000)
G00 X10.1600 Y33.0200 
G01 Z-2.240000
G01 Z2.540000
(G00 Z2.540000)
G00 X10.1600 Y38.1000 
G01 Z-2.240000
G01 Z2.540000
(G00 Z2.540000)
G00 X10.1600 Y43.1800 
G01 Z-2.240000
G01 Z2.540000
(G00 Z2.540000)
G00 X10.1600 Y48.2600 
G01 Z-2.240000
G01 Z2.540000
(G00 Z2.540000)
G00 X10.1600 Y53.3400 
G01 Z-2.240000
G01 Z2.540000
(G00 Z2.540000)
G00 X10.1600 Y58.4200 
G01 Z-2.240000
G01 Z2.540000
(G00 Z2.540000)
G00 X10.1600 Y63.5000 
G01 Z-2.240000
G01 Z2.540000
(G00 Z2.540000)
G00 X10.1600 Y68.5800 
G01 Z-2.240000
G01 Z2.540000
(G00 Z2.540000)
G00 X27.9400 Y10.1600 
G01 Z-2.240000
G01 Z2.540000
(G00 Z2.540000)
G00 X27.9400 Y88.9000 
G01 Z-2.240000
G01 Z2.540000
(G00 Z2.540000)
G00 X33.0200 Y10.1600 
G01 Z-2.240000
G01 Z2.540000
(G00 Z2.540000)
G00 X33.0200 Y88.9000 
G01 Z-2.240000
G01 Z2.540000
(G00 Z2.540000)
G00 X38.1000 Y10.1600 
G01 Z-2.240000
G01 Z2.540000
(G00 Z2.540000)
G00 X38.1000 Y88.9000 
G01 Z-2.240000
G01 Z2.540000
(G00 Z2.540000)
G00 X43.1800 Y10.1600 
G01 Z-2.240000
G01 Z2.540000
(G00 Z2.540000)
G00 X43.1800 Y88.9000 
G01 Z-2.240000
G01 Z2.540000
(G00 Z2.540000)
G00 X48.2600 Y10.1600 
G01 Z-2.240000
G01 Z2.540000
(G00 Z2.540000)
G00 X48.2600 Y88.9000 
G01 Z-2.240000
G01 Z2.540000
(G00 Z2.540000)
G00 X53.3400 Y10.1600 
G01 Z-2.240000
G01 Z2.540000
(G00 Z2.540000)
G00 X53.3400 Y88.9000 
G01 Z-2.240000
G01 Z2.540000
(G00 Z2.540000)
G00 X58.4200 Y10.1600 
G01 Z-2.240000
G01 Z2.540000
(G00 Z2.540000)
G00 X58.4200 Y88.9000 
G01 Z-2.240000
G01 Z2.540000
(G00 Z2.540000)
G00 X63.5000 Y10.1600 
G01 Z-2.240000
G01 Z2.540000
(G00 Z2.540000)
G00 X63.5000 Y88.9000 
G01 Z-2.240000
G01 Z2.540000
(G00 Z2.540000)
G00 X68.5800 Y10.1600 
G01 Z-2.240000
G01 Z2.540000
(G00 Z2.540000)
G00 X68.5800 Y88.9000 
G01 Z-2.240000
G01 Z2.540000
(G00 Z2.540000)
G00 X73.6600 Y10.1600 
G01 Z-2.240000
G01 Z2.540000
(G00 Z2.540000)
G00 X73.6600 Y88.9000 
G01 Z-2.240000
G01 Z2.540000
T01 
G00 Z12.7000 
M05
M02
